X: 1
T:Fairy Troop, The
M:C
L:1/8
R:Air
N:"Andante"
S:Stanford/Petrie (1905), No. 544
Z:AK/Fiddler's Companion
K:F
FG | A2 AB A2 GF | c2 cd cA GA | F2 FA G2 {A/G/}FG | {F}A6 c2 |
d2 dc defd | e2c2A2 cd/e/ | f2 ec d3c | c6 (3cde | f2A2 BAGF | c2d2A2 AG |
F2 FA "tr"G2 FG | A6 c2 | d2 ef g2 ec | f2 ga f2 cB | A2 FA GFG>F | F6 ||
